src/assets/images/eyes/8.svg

<svg width="32" height="32" viewBox="0 0 32 32" fill="none" xmlns="http://www.w3.org/2000/svg">
<path fill-rule="evenodd" clip-rule="evenodd" d="M10.75 6C11.1642 6 11.5 6.33579 11.5 6.75V7.55001C12.6411 7.78164 13.5 8.79052 13.5 10V10.25C13.5 10.6642 13.1642 11 12.75 11C12.3358 11 12 10.6642 12 10.25V10C12 9.44772 11.5523 9 11 9H10.5C9.94772 9 9.5 9.44772 9.5 10V10.2051C9.5 10.7095 9.87554 11.1349 10.376 11.1974L11.3101 11.3142C12.5612 11.4706 13.5 12.5341 13.5 13.7949V14C13.5 15.2095 12.6411 16.2184 11.5 16.45V17.25C11.5 17.6642 11.1642 18 10.75 18C10.3358 18 10 17.6642 10 17.25V16.45C8.85888 16.2184 8 15.2095 8 14V13.75C8 13.3358 8.33579 13 8.75 13C9.16421 13 9.5 13.3358 9.5 13.75V14C9.5 14.5523 9.94772 15 10.5 15H11C11.5523 15 12 14.5523 12 14V13.7949C12 13.2905 11.6245 12.8651 11.124 12.8026L10.1899 12.6858C8.93884 12.5294 8 11.4659 8 10.2051V10C8 8.79052 8.85888 7.78164 10 7.55001V6.75C10 6.33579 10.3358 6 10.75 6Z" fill="#402A32"/>
<path fill-rule="evenodd" clip-rule="evenodd" d="M21.25 6C21.6642 6 22 6.33579 22 6.75V7.55001C23.1411 7.78164 24 8.79052 24 10V10.25C24 10.6642 23.6642 11 23.25 11C22.8358 11 22.5 10.6642 22.5 10.25V10C22.5 9.44772 22.0523 9 21.5 9H21C20.4477 9 20 9.44772 20 10V10.2051C20 10.7095 20.3755 11.1349 20.876 11.1974L21.8101 11.3142C23.0612 11.4706 24 12.5341 24 13.7949V14C24 15.2095 23.1411 16.2184 22 16.45V17.25C22 17.6642 21.6642 18 21.25 18C20.8358 18 20.5 17.6642 20.5 17.25V16.45C19.3589 16.2184 18.5 15.2095 18.5 14V13.75C18.5 13.3358 18.8358 13 19.25 13C19.6642 13 20 13.3358 20 13.75V14C20 14.5523 20.4477 15 21 15H21.5C22.0523 15 22.5 14.5523 22.5 14V13.7949C22.5 13.2905 22.1245 12.8651 21.624 12.8026L20.6899 12.6858C19.4388 12.5294 18.5 11.4659 18.5 10.2051V10C18.5 8.79052 19.3589 7.78164 20.5 7.55001V6.75C20.5 6.33579 20.8358 6 21.25 6Z" fill="#402A32"/>
</svg>

<svg width="32" height="32" fill="none" xmlns="http://www.w3.org/2000/svg"><path fill-rule="evenodd" clip-rule="evenodd" d="M10.75 6a.75.75 0 0 1 .75.75v.8a2.5 2.5 0 0 1 2 2.45v.25a.75.75 0 0 1-1.5 0V10a1 1 0 0 0-1-1h-.5a1 1 0 0 0-1 1v.205a1 1 0 0 0 .876.992l.934.117a2.5 2.5 0 0 1 2.19 2.48V14a2.5 2.5 0 0 1-2 2.45v.8a.75.75 0 0 1-1.5 0v-.8A2.5 2.5 0 0 1 8 14v-.25a.75.75 0 0 1 1.5 0V14a1 1 0 0 0 1 1h.5a1 1 0 0 0 1-1v-.205a1 1 0 0 0-.876-.992l-.934-.117A2.5 2.5 0 0 1 8 10.206V10a2.5 2.5 0 0 1 2-2.45v-.8a.75.75 0 0 1 .75-.75zM21.25 6a.75.75 0 0 1 .75.75v.8A2.5 2.5 0 0 1 24 10v.25a.75.75 0 0 1-1.5 0V10a1 1 0 0 0-1-1H21a1 1 0 0 0-1 1v.205a1 1 0 0 0 .876.992l.934.117a2.5 2.5 0 0 1 2.19 2.48V14a2.5 2.5 0 0 1-2 2.45v.8a.75.75 0 0 1-1.5 0v-.8a2.5 2.5 0 0 1-2-2.45v-.25a.75.75 0 0 1 1.5 0V14a1 1 0 0 0 1 1h.5a1 1 0 0 0 1-1v-.205a1 1 0 0 0-.876-.992l-.934-.117a2.5 2.5 0 0 1-2.19-2.48V10a2.5 2.5 0 0 1 2-2.45v-.8a.75.75 0 0 1 .75-.75z" fill="#402A32"/></svg>
